Obsidian-SemiLight/actions/22s/view-split-effect.svg

<svg viewBox="0 0 22 22" xmlns="http://www.w3.org/2000/svg"><path d="m3 3v16h16v-16zm1 4h7v1h1v-1h6v11h-6v-1h-1v1h-7zm5.4902344.9980469.0019531.0039062.0019531-.0039062zm.0019531.0039062-1.6835937 3.3652349h-2.8125l2.2480468 2.248046-.5625 3.373047 2.8105469-1.685547.5058594.302735v-6.5957034zm1.5078125.9980469v1h1v-1zm0 2v1h1v-1zm0 2v1h1v-1zm0 2v1h1v-1z" fill="#4d4d4d"/></svg>

<svg xmlns="http://www.w3.org/2000/svg" viewBox="0 0 22 22">
  <defs id="defs3051">
    <style type="text/css" id="current-color-scheme">
      .ColorScheme-Text {
        color:#4d4d4d;
      }
      </style>
  </defs>
 <path 
    style="fill:currentColor;fill-opacity:1;stroke:none" 
    d="M 3 3 L 3 19 L 19 19 L 19 3 L 3 3 z M 4 7 L 11 7 L 11 8 L 12 8 L 12 7 L 18 7 L 18 18 L 12 18 L 12 17 L 11 17 L 11 18 L 4 18 L 4 7 z M 9.4902344 7.9980469 L 9.4921875 8.0019531 L 9.4941406 7.9980469 L 9.4902344 7.9980469 z M 9.4921875 8.0019531 L 7.8085938 11.367188 L 4.9960938 11.367188 L 7.2441406 13.615234 L 6.6816406 16.988281 L 9.4921875 15.302734 L 9.9980469 15.605469 L 9.9980469 9.0097656 L 9.4921875 8.0019531 z M 11 9 L 11 10 L 12 10 L 12 9 L 11 9 z M 11 11 L 11 12 L 12 12 L 12 11 L 11 11 z M 11 13 L 11 14 L 12 14 L 12 13 L 11 13 z M 11 15 L 11 16 L 12 16 L 12 15 L 11 15 z "
    class="ColorScheme-Text"
    />  
</svg>
